X: 19901
T: Jig For Jules
R: jig
M: 6/8
K: Dmajor
|:F2A AFE|EDF A (3Bcd|ede fdA|(3Bcd B AFE|
F2A AFE|EDF A (3Bcd|efg fed|BAF E3:|
|:e3ede|fed (3Bcd B|ABd ede|faf edB|
e3ede|fed efg|agf edc|1 BGE A(3Bcd:|2 BGE A3||

